symbols/web/elevator/materialsymbolssharp/elevator_wght500grad200fill1_20px.svg

<svg xmlns="http://www.w3.org/2000/svg" height="20" width="20"><path d="M5.771 15.312h2.958v-3.333h.833V7.771H4.938v4.208h.833ZM7.25 7.229q.521 0 .896-.375t.375-.896q0-.541-.375-.906-.375-.364-.896-.364-.542 0-.906.364-.365.365-.365.906 0 .521.365.896.364.375.906.375Zm3 2.167h4.979l-2.479-4Zm2.5 5.208 2.479-4H10.25ZM1.875 18.125V1.875h16.25v16.25Z"/></svg>

<svg xmlns="http://www.w3.org/2000/svg" height="20" width="20"><path d="M5.771 15.312H8.729V11.979H9.562V7.771H4.938V11.979H5.771ZM7.25 7.229Q7.771 7.229 8.146 6.854Q8.521 6.479 8.521 5.958Q8.521 5.417 8.146 5.052Q7.771 4.688 7.25 4.688Q6.708 4.688 6.344 5.052Q5.979 5.417 5.979 5.958Q5.979 6.479 6.344 6.854Q6.708 7.229 7.25 7.229ZM10.25 9.396H15.229L12.75 5.396ZM12.75 14.604 15.229 10.604H10.25ZM1.875 18.125V1.875H18.125V18.125Z"/></svg>
